packages/ffe-icons/icons/open/400/sm/vertical_split.svg

<svg xmlns="http://www.w3.org/2000/svg" height="20" viewBox="0 -960 960 960" width="20"><path d="M180.283-376Q165-376 154.5-386.289q-10.5-10.29-10.5-25.5Q144-427 154.338-437.5 164.677-448 179.96-448h215.757Q411-448 421.5-437.711q10.5 10.29 10.5 25.5Q432-397 421.662-386.5 411.323-376 396.04-376H180.283Zm0 136Q165-240 154.5-250.289q-10.5-10.29-10.5-25.5Q144-291 154.338-301.5 164.677-312 179.96-312h215.757Q411-312 421.5-301.711q10.5 10.29 10.5 25.5Q432-261 421.662-250.5 411.323-240 396.04-240H180.283Zm0-272Q165-512 154.5-522.289q-10.5-10.29-10.5-25.5Q144-563 154.338-573.5 164.677-584 179.96-584h215.757Q411-584 421.5-573.711q10.5 10.29 10.5 25.5Q432-533 421.662-522.5 411.323-512 396.04-512H180.283Zm0-136Q165-648 154.5-658.289q-10.5-10.29-10.5-25.5Q144-699 154.338-709.5 164.677-720 179.96-720h215.757Q411-720 421.5-709.711q10.5 10.29 10.5 25.5Q432-669 421.662-658.5 411.323-648 396.04-648H180.283Zm419.453 408Q570-240 549-261.15 528-282.3 528-312v-336q0-29.7 21.176-50.85Q570.352-720 600.088-720h144.176Q774-720 795-698.85q21 21.15 21 50.85v336q0 29.7-21.176 50.85Q773.648-240 743.912-240H599.736Zm.264-72h144v-336H600v336Zm72-168Z"/></svg>

<svg xmlns="http://www.w3.org/2000/svg" height="20" viewBox="0 -960 960 960" width="20"><path d="M180.28-376q-15.28 0-25.78-10.29-10.5-10.29-10.5-25.5t10.34-25.71q10.34-10.5 25.62-10.5h215.76q15.28 0 25.78 10.29 10.5 10.29 10.5 25.5t-10.34 25.71Q411.32-376 396.04-376H180.28Zm0 136q-15.28 0-25.78-10.29-10.5-10.29-10.5-25.5t10.34-25.71q10.34-10.5 25.62-10.5h215.76q15.28 0 25.78 10.29 10.5 10.29 10.5 25.5t-10.34 25.71Q411.32-240 396.04-240H180.28Zm0-272q-15.28 0-25.78-10.29-10.5-10.29-10.5-25.5t10.34-25.71q10.34-10.5 25.62-10.5h215.76q15.28 0 25.78 10.29 10.5 10.29 10.5 25.5t-10.34 25.71Q411.32-512 396.04-512H180.28Zm0-136q-15.28 0-25.78-10.29-10.5-10.29-10.5-25.5t10.34-25.71q10.34-10.5 25.62-10.5h215.76q15.28 0 25.78 10.29 10.5 10.29 10.5 25.5t-10.34 25.71Q411.32-648 396.04-648H180.28Zm419.46 408Q570-240 549-261.15 528-282.3 528-312v-336q0-29.7 21.18-50.85Q570.35-720 600.09-720h144.17Q774-720 795-698.85q21 21.15 21 50.85v336q0 29.7-21.18 50.85Q773.65-240 743.91-240H599.74Zm.26-72h144v-336H600v336Zm72-168Z"/></svg>
